modules/coreui-icons-free/icons/contrast.svg

<!-- Generated by IcoMoon.io -->
<svg version="1.1" xmlns="http://www.w3.org/2000/svg" width="24" height="24" viewBox="0 0 24 24">
<title>contrast</title>
<path d="M12 0.75c-6.213 0-11.25 5.037-11.25 11.25s5.037 11.25 11.25 11.25 11.25-5.037 11.25-11.25-5.037-11.25-11.25-11.25zM2.25 12q0-0.465 0.043-0.922l8.676 4.857v2.5l-8.583-4.805c-0.086-0.489-0.135-1.052-0.135-1.626 0-0.001 0-0.002 0-0.003v0zM3.295 7.603l7.673 4.3v2.312l-8.399-4.702c0.136-0.516 0.289-0.951 0.47-1.371l-0.024 0.063q0.13-0.307 0.28-0.603zM10.969 2.304v3.768l-4.202-2.301c1.197-0.774 2.624-1.298 4.159-1.463l0.043-0.004zM5.462 4.767l5.507 3.016v2.401l-6.895-3.864c0.325-0.45 0.664-0.847 1.032-1.214l0-0q0.174-0.174 0.356-0.339zM5.106 18.894c-0.868-0.866-1.573-1.895-2.066-3.037l-0.024-0.063c-0.017-0.040-0.033-0.081-0.050-0.121l8.003 4.48v1.543c-2.307-0.249-4.339-1.272-5.863-2.802l-0-0zM18.894 18.894c-1.654 1.659-3.905 2.724-6.403 2.844l-0.022 0.001v-19.478c5.181 0.252 9.286 4.515 9.286 9.735 0 2.694-1.093 5.133-2.86 6.898l-0 0z"></path>
</svg>

<svg xmlns="http://www.w3.org/2000/svg" width="24" height="24" viewBox="0 0 24 24"><path d="M12 .75C5.787.75.75 5.787.75 12S5.787 23.25 12 23.25 23.25 18.213 23.25 12 18.213.75 12 .75zM2.25 12q0-.465.043-.922l8.676 4.857v2.5L2.386 13.63a9.574 9.574 0 01-.135-1.626v-.003zm1.045-4.397l7.673 4.3v2.312L2.569 9.513a9.5 9.5 0 01.47-1.371l-.024.063q.13-.307.28-.603zm7.674-5.299v3.768L6.767 3.771a9.561 9.561 0 014.159-1.463l.043-.004zM5.462 4.767l5.507 3.016v2.401L4.074 6.32c.325-.45.664-.847 1.032-1.214q.174-.174.356-.339zm-.356 14.127a9.752 9.752 0 01-2.066-3.037l-.024-.063-.05-.121 8.003 4.48v1.543a9.702 9.702 0 01-5.863-2.802zm13.788 0a9.68 9.68 0 01-6.403 2.844l-.022.001V2.261c5.181.252 9.286 4.515 9.286 9.735a9.72 9.72 0 01-2.86 6.898z"/></svg>
